X: 3183
T: Mrs Dundas of Arniston's    Reel
C: by Will: Gow.
%R: reel
B: Niel Gow & Sons "A Third Collection of Strathspey Reels, etc." v.3 p.18 #3
Z: 2022 John Chambers <jc:trillian.mit.edu>
M: C|
L: 1/8
K: C
% - - - - - - - - - -
V: 1 staves=2
G |\
c2ce dBG_B | AFTF2 GECE | F2FA GECE | FDCB, C2C :| f | egec Bdg2 | Acf2 Gc e2 |
FAdF EGce | fedc Tc2cf || egec BdgB | AcfA GceG | FAdF EGcE | FDCB, C2C |]
% - - - - - - - - - -
% Voice 2 preserves the staff layout in the book.
V: 2 clef=bass middle=d
z | c'2c2 g2e2 | f2d2 e2c2 | d2B2 c2e2 | f2g2 c2c :| z | c'2c'2 g2g2 | f2f2 e2c2 |
d2B2 c2e2 | f2g2 c2c2 || c'2c'2 g2g2 | f2f2 e2e2 | d2d2 c2c2 | f2g2 c2c |]
